X: 1084
T: Sweet Biddy Daly
R:double jig
N:"collected by F.O'Neill"
B:O'Neill's 1084
Z:Transcribed by henrik.norbeck@mailbox.swipnet.se
M:6/8
L:1/8
K:A
a|ecA TBAF|AFE EFA|Bdc BAB|{d}cBB B2a|
ecA TBAF|AFE EFA|Bdc BAB|{d}cAA A2:|
A|cee dff|cee ecA|cde eaf|ecA TB2A|
cee dff|cee ecA|Bdc BAB|{d}cAA A2:|


